icons/badge/add/circle.svg

<svg width="32" height="32" viewBox="0 0 32 32" fill="none" xmlns="http://www.w3.org/2000/svg">
<path fill-rule="evenodd" clip-rule="evenodd" d="M16.0001 4.00003C9.3727 4.00003 4.00012 9.37261 4.00012 16C4.00012 22.6274 9.3727 28 16.0001 28C22.6275 28 28.0001 22.6274 28.0001 16C28.0001 9.37261 22.6275 4.00003 16.0001 4.00003ZM2.00012 16C2.00012 8.26804 8.26814 2.00003 16.0001 2.00003C23.7321 2.00003 30.0001 8.26804 30.0001 16C30.0001 23.732 23.7321 30 16.0001 30C8.26814 30 2.00012 23.732 2.00012 16ZM15 15V9H17V15H23V17H17V23H15V17H9V15H15Z" fill="black"/>
</svg>

<svg width="32" height="32" viewBox="0 0 32 32" xmlns="http://www.w3.org/2000/svg">
    <path fill-rule="evenodd" d="M16 4C9.373 4 4 9.373 4 16s5.373 12 12 12c6.628 0 12-5.373 12-12S22.628 4 16 4zM2 16C2 8.268 8.268 2 16 2s14 6.268 14 14-6.268 14-14 14S2 23.732 2 16zm13-1V9h2v6h6v2h-6v6h-2v-6H9v-2h6z"/>
</svg>
